X:1
T:My Father Watches over Me
T:Charles Hutchinson Gabriel
T:My Father Watches over Me
T:Public Domain
T:Public Domain
T:Public Domain
C:Charles Hutchinson Gabriel
Z:Public Domain
%%score ( 1 2 ) ( 3 4 )
L:1/8
M:4/4
K:Db
V:1 treble 
V:2 treble 
V:3 bass 
V:4 bass 
V:1
 ABA | [DF]3 [F-A] dced | [DE]4- [DE][=DF]GA | [Ec]3 [GB] [CE][DF][CG][GA] | (FGAG [FA])ABA | %5
w: 1.~I trust in|wher- ev- er I may be,|Up- * on the land,|on the roll- ing sea, For|come * * * * what may, from|
w: 2.~He makes the|an ob- ject of His care,|He * guides the ea-|thro’ the path- less air, And|sure- * * * * ly He re-|
w: 3.~I trust in|for, in the li- on’s den,|On * bat- tle- field,|in the pri- son pen, Thro’|praise * * * * or blame, thro’|
w: 4.~The val- ley|be dark, the sha- dows deep,|But * O, the Shep-|guards His lone- ly sheep; And|thro’ * * * * the gloom He’ll|
 [DF]4- [DF][Fd]ed | (d4- d)dcB | [FA]Bc[Dd] [E=Gd]2 [E_Gc]2 | [Fd]4- [Fd] ||"^Refrain" AAA | %10
w: day, * My heav’n- ly|ther * watch- es o-||||
w: me; * My heav’n- ly|ther * watch- es o-|I trust in God, I know|cares *|for me; On|
w: flame, * My heav’n- ly|ther * watch- es o-||||
w: home, * My heav’n- ly|ther * watch- es o-||||
 [Ge]3 [Ge] [Af][Ge][Ge][Fd] | (FGAE A)dd[Fd] | (FF z) d [=Gd][EB][Ec][Ed] | %13
w: |||
w: or on the storm- y sea;|Tho’ * * * * bil- lows roll,|my * soul; My heav’n- ly Fa-|
w: |||
w: |||
 (AEA=G [_Ge])[EA][DA]A | (AAAA [Af])[Fd]ed | (GG z2 d)[Gd][=Ec][EB] | %16
w: |||
w: es * * * * o- ver me.|||
w: |||
w: |||
 [FA][EB][Ec][Dd] [=Gd]2 [_Gc]2 | [Fd]4- [Fd] |] %18
w: ||
w: ||
w: ||
w: ||
V:2
 D3- | x4 F4 | x6 E2 | x8 | A4 D3- x | x6 A2 | G6 =E2 | x E2 x5 | x5 || AAA | x8 | A4 F3 x | %12
w: God||or||day to|Fa-|ver me.||||||
w: rose||gle||mem- bers|Fa-|ver me.|He||mount- ain bleak||He keeps|
w: God,||or||flood or|Fa-|ver me.||||||
w: may||herd||lead me|Fa-|ver me.||||||
 d3 F2 x3 | e4- x2 A x | f4- x A2 x | d4- G3 x | x8 | x5 |] %18
w: ||||||
w: ther watch-||||||
w: ||||||
w: ||||||
V:3
 F,G,F, | ([D,A,][D,A,]) [F,A,]6 | ([G,B,][G,B,][G,B,][G,B,] G,)F,E,[C,A,] | %3
w: ~ ~ ~|~ * ~|~ * * * * ~ ~ ~|
 ([A,,A,][A,,A,] [A,,A,]2) G,F,[E,A,][A,,C] | ([D,D][E,C][F,D][A,C]) DF,G,F, | %5
w: ~ * * ~ ~ ~ ~|~ * * * ~ ~ ~ ~|
 ([D,A,][D,A,][D,A,][D,A,] [D,A,]2) [F,_C]2 | ([G,B,][G,B,][G,B,][G,B,] [G,B,]2) [=G,D]2 | %7
w: ~ * * * * ~|~ * * * * ~|
 A,=G,_G,F, [E,B,]2 [A,,A,]2 | [D,A,]4- [D,A,] || A,A,A, | %10
w: ~ ~ ~ ~ ~ ~|~ *|~ ~ ~|
 [A,,C]3 [A,,C] [A,,C][A,,C][D,A,][D,A,] | [D,D][E,C][F,D][A,E] [D,E]3 [D,A,] | %12
w: for me, On mount- ain bleak|or on the sea, the storm-|
 [B,,B,][B,,B,] [B,,B,]2 ([E,B,][D,=G,])[C,A,][B,,B,] | %13
w: y sea ~ ~ * ~ ~|
 [A,,C][B,,D][C,E][E,D] [A,C][G,C][F,D][E,C] | [D,D][D,D][F,D][A,D] DA,A,_C | %15
w: tho’ bil- lows roll, He ~ ~ keeps|my soul * * * * * *|
 [G,B,][G,B,] [G,B,]3 [G,B,][=G,D][G,D] | [A,D][=G,D][_G,A,][F,A,] [E,B,]2 [A,,A,E]2 | %17
w: ||
 [D,A,]4- [D,A,] |] %18
w: |
V:4
 D,3 | x8 | x4 B,3 x | x4 A,2 x2 | x4 D,4 | x8 | x8 | D2 A,2 x4 | x5 || A,A,A, | x8 | x8 | x8 | %13
w: ~||~|~|~|||~ ~||~ He cares||||
 x8 | x4 D,2 F,2 | x8 | x8 | x5 |] %18
w: |||||

